assets/misc-grey/MiscGrey60.svg

<svg width="44" height="31" viewBox="0 0 44 31" fill="none" xmlns="http://www.w3.org/2000/svg">
<path fill-rule="evenodd" clip-rule="evenodd" d="M39.896 27.026H3.77899C3.50799 27.026 3.27899 26.798 3.27899 26.526V5.20799L21.016 16.817C21.266 16.98 21.551 17.063 21.837 17.063C22.128 17.063 22.418 16.979 22.67 16.811L40.396 4.98199V26.526C40.396 26.798 40.167 27.026 39.896 27.026ZM36.722 3.82599L21.83 13.765L6.64599 3.82599H36.722ZM42.295 1.79099C42.112 1.55399 41.872 1.38399 41.605 1.29099C41.097 1.00399 40.52 0.825989 39.896 0.825989H3.77899C1.84999 0.825989 0.278992 2.39599 0.278992 4.32599V26.526C0.278992 28.456 1.84999 30.026 3.77899 30.026H39.896C41.825 30.026 43.396 28.456 43.396 26.526V4.32599C43.396 3.32699 42.969 2.42999 42.295 1.79099Z" fill="#1A1919"/>
</svg>

<svg xmlns="http://www.w3.org/2000/svg" viewBox="0 0 44 31"><path fill-rule="evenodd" d="M39.896 27.026H3.779a.506.506 0 01-.5-.5V5.208l17.737 11.609a1.502 1.502 0 001.654-.006L40.396 4.982v21.544c0 .272-.229.5-.5.5zm-3.174-23.2L21.83 13.765 6.646 3.826h30.076zm5.573-2.035a1.49 1.49 0 00-.69-.5 3.459 3.459 0 00-1.709-.465H3.779c-1.929 0-3.5 1.57-3.5 3.5v22.2c0 1.93 1.571 3.5 3.5 3.5h36.117c1.929 0 3.5-1.57 3.5-3.5v-22.2c0-.999-.427-1.896-1.101-2.535z" clip-rule="evenodd"/></svg>
